icon.svg

<?xml version="1.0" encoding="UTF-8"?>
<svg width="32px" height="32px" viewBox="0 0 32 32" version="1.1" xmlns="http://www.w3.org/2000/svg" xmlns:xlink="http://www.w3.org/1999/xlink">
    <!-- Generator: Sketch 50.2 (55047) - http://www.bohemiancoding.com/sketch -->
    <title>icon-contacts-alpha</title>
    <desc>Created with Sketch.</desc>
    <defs>
        <path d="M6.297,6.20000076 L5.673,6.20000076 C5.60299965,6.20000076 5.54550022,6.18250094 5.5005,6.14750076 C5.45549977,6.11250059 5.4230001,6.06900102 5.403,6.01700076 L5.079,5.13200076 L3.282,5.13200076 L2.958,6.01700076 C2.94199992,6.06300099 2.91050023,6.10500057 2.8635,6.14300076 C2.81649976,6.18100095 2.75900034,6.20000076 2.691,6.20000076 L2.064,6.20000076 L3.768,1.86200076 L4.593,1.86200076 L6.297,6.20000076 Z M3.489,4.56200076 L4.872,4.56200076 L4.344,3.11900076 C4.31999988,3.05500044 4.29350014,2.9795012 4.2645,2.89250076 C4.23549985,2.80550033 4.20700014,2.71100127 4.179,2.60900076 C4.15099986,2.71100127 4.12350013,2.80600032 4.0965,2.89400076 C4.06949986,2.9820012 4.04300013,3.05900043 4.017,3.12500076 L3.489,4.56200076 Z M8.551,5.53400076 L10.288,5.53400076 L10.288,6.20000076 L7.744,6.20000076 L7.744,1.86200076 L8.551,1.86200076 L8.551,5.53400076 Z M12.68,4.67300076 L12.68,6.20000076 L11.873,6.20000076 L11.873,1.86200076 L13.286,1.86200076 C13.5760014,1.86200076 13.8269989,1.89600042 14.039,1.96400076 C14.2510011,2.0320011 14.4259993,2.12700015 14.564,2.24900076 C14.7020007,2.37100137 14.8039997,2.51699991 14.87,2.68700076 C14.9360003,2.85700161 14.969,3.04299975 14.969,3.24500076 C14.969,3.45500181 14.9340004,3.64749989 14.864,3.82250076 C14.7939996,3.99750164 14.6890007,4.14800013 14.549,4.27400076 C14.4089993,4.40000139 14.234001,4.49800041 14.024,4.56800076 C13.813999,4.63800111 13.5680014,4.67300076 13.286,4.67300076 L12.68,4.67300076 Z M12.68,4.04300076 L13.286,4.04300076 C13.4340007,4.04300076 13.5629994,4.02450095 13.673,3.98750076 C13.7830006,3.95050058 13.8739996,3.89750111 13.946,3.82850076 C14.0180004,3.75950042 14.0719998,3.67550126 14.108,3.57650076 C14.1440002,3.47750027 14.162,3.36700137 14.162,3.24500076 C14.162,3.12900018 14.1440002,3.02400123 14.108,2.93000076 C14.0719998,2.83600029 14.0180004,2.75600109 13.946,2.69000076 C13.8739996,2.62400043 13.7830006,2.57350094 13.673,2.53850076 C13.5629994,2.50350059 13.4340007,2.48600076 13.286,2.48600076 L12.68,2.48600076 L12.68,4.04300076 Z M20.256,6.20000076 L19.443,6.20000076 L19.443,4.30400076 L17.409,4.30400076 L17.409,6.20000076 L16.596,6.20000076 L16.596,1.86200076 L17.409,1.86200076 L17.409,3.72800076 L19.443,3.72800076 L19.443,1.86200076 L20.256,1.86200076 L20.256,6.20000076 Z M25.945,6.20000076 L25.321,6.20000076 C25.2509996,6.20000076 25.1935002,6.18250094 25.1485,6.14750076 C25.1034998,6.11250059 25.0710001,6.06900102 25.051,6.01700076 L24.727,5.13200076 L22.93,5.13200076 L22.606,6.01700076 C22.5899999,6.06300099 22.5585002,6.10500057 22.5115,6.14300076 C22.4644998,6.18100095 22.4070003,6.20000076 22.339,6.20000076 L21.712,6.20000076 L23.416,1.86200076 L24.241,1.86200076 L25.945,6.20000076 Z M23.137,4.56200076 L24.52,4.56200076 L23.992,3.11900076 C23.9679999,3.05500044 23.9415001,2.9795012 23.9125,2.89250076 C23.8834999,2.80550033 23.8550001,2.71100127 23.827,2.60900076 C23.7989999,2.71100127 23.7715001,2.80600032 23.7445,2.89400076 C23.7174999,2.9820012 23.6910001,3.05900043 23.665,3.12500076 L23.137,4.56200076 Z" id="path-1"></path>
    </defs>
    <g id="icon-contacts-alpha" stroke="none" stroke-width="1" fill="none" fill-rule="evenodd">
        <g id="contacts-02" transform="translate(1.000000, 5.000000)">
            <path d="M30,20.5032751 C30,21.6060358 29.1101995,22.5 27.9901376,22.5 L22.5,22.5 L22.5,20.2536611 C22.5,19.423212 21.8191722,18.75 20.9949455,18.75 L21.1925545,18.75 C20.3613359,18.75 19.6875,19.4204248 19.6875,20.2536611 L19.6875,22.5 L10.3125,22.5 L10.3125,20.2536611 C10.3125,19.423212 9.6316722,18.75 8.80744547,18.75 L9.00505453,18.75 C8.17383587,18.75 7.5,19.4204248 7.5,20.2536611 L7.5,22.5 L2.00986236,22.5 C0.899846031,22.5 -3.21275034e-13,21.6040887 -3.22373694e-13,20.5032751 L-3.4084405e-13,1.9967249 C-3.41944654e-13,0.89396419 0.89784041,2.90464514e-14 1.99161703,2.90229711e-14 L28.008383,2.84644639e-14 C29.1083227,2.84408512e-14 30,0.895911329 30,1.9967249 L30,20.5032751 Z" id="Fill-647" fill="#FFD799"></path>
            <path d="M15.9375,4.6875 L21.5625,4.6875 L21.5625,5.625 L15.9375,5.625 L15.9375,4.6875 Z M15.9375,7.5 L26.25,7.5 L26.25,8.4375 L15.9375,8.4375 L15.9375,7.5 Z M15.9375,10.3125 L26.25,10.3125 L26.25,11.25 L15.9375,11.25 L15.9375,10.3125 Z M15.9375,13.125 L26.25,13.125 L26.25,14.0625 L15.9375,14.0625 L15.9375,13.125 Z M8.4375,10.078125 C6.88419914,10.078125 5.625,8.66152597 5.625,6.9140625 C5.625,5.16659903 6.88419914,3.75 8.4375,3.75 C9.99080086,3.75 11.25,5.16659903 11.25,6.9140625 C11.25,8.66152597 9.99080086,10.078125 8.4375,10.078125 Z M2.8125,13.59375 C2.81249999,12.890625 4.21875,10.78125 5.625,10.78125 C7.03125,10.78125 6.328125,11.484375 8.4375,11.484375 C10.546875,11.484375 9.84375,10.78125 11.25,10.78125 C12.65625,10.78125 14.0625,12.890625 14.0625,13.59375 C14.0625,14.296875 14.0625,15 13.359375,15 L3.515625,15 C2.8125,15 2.81250001,14.296875 2.8125,13.59375 Z" id="Combined-Shape" fill="#FF9300"></path>
        </g>
        <g id="bandeau" transform="translate(4.000000, 23.000000)">
            <rect id="Rectangle-12" fill="#297EF1" fill-rule="nonzero" x="0" y="0" width="28" height="8" rx="1"></rect>
            <g id="ALPHA">
                <use fill="#000000" xlink:href="#path-1"></use>
                <use fill="#FFFFFF" xlink:href="#path-1"></use>
            </g>
        </g>
    </g>
</svg>

<svg width="32" height="32" xmlns="http://www.w3.org/2000/svg" xmlns:xlink="http://www.w3.org/1999/xlink"><defs><path d="M6.297 6.2h-.624a.273.273 0 0 1-.27-.183l-.324-.885H3.282l-.324.885a.284.284 0 0 1-.267.183h-.627l1.704-4.338h.825L6.297 6.2zM3.489 4.562h1.383l-.528-1.443a6.59 6.59 0 0 1-.165-.51 9.996 9.996 0 0 1-.083.285 3.19 3.19 0 0 1-.079.231l-.528 1.437zm5.062.972h1.737V6.2H7.744V1.862h.807v3.672zm4.129-.861V6.2h-.807V1.862h1.413c.29 0 .541.034.753.102.212.068.387.163.525.285.138.122.24.268.306.438.066.17.099.356.099.558 0 .21-.035.402-.105.578-.07.175-.175.325-.315.451s-.315.224-.525.294c-.21.07-.456.105-.738.105h-.606zm0-.63h.606c.148 0 .277-.018.387-.055a.652.652 0 0 0 .435-.411.965.965 0 0 0 .054-.332.875.875 0 0 0-.054-.315.623.623 0 0 0-.162-.24.72.72 0 0 0-.273-.151 1.28 1.28 0 0 0-.387-.053h-.606v1.557zM20.256 6.2h-.813V4.304h-2.034V6.2h-.813V1.862h.813v1.866h2.034V1.862h.813V6.2zm5.689 0h-.624a.273.273 0 0 1-.27-.183l-.324-.885H22.93l-.324.885a.284.284 0 0 1-.267.183h-.627l1.704-4.338h.825L25.945 6.2zm-2.808-1.638h1.383l-.528-1.443a6.59 6.59 0 0 1-.165-.51 9.996 9.996 0 0 1-.083.285 3.19 3.19 0 0 1-.079.231l-.528 1.437z" id="a"/></defs><g fill="none" fill-rule="evenodd"><path d="M31 25.503c0 1.103-.89 1.997-2.01 1.997H23.5v-2.246c0-.83-.68-1.504-1.505-1.504h.198c-.832 0-1.506.67-1.506 1.504V27.5h-9.375v-2.246c0-.83-.68-1.504-1.505-1.504h.198c-.831 0-1.505.67-1.505 1.504V27.5H3.01C1.9 27.5 1 26.604 1 25.503V6.997C1 5.894 1.898 5 2.992 5h26.016C30.108 5 31 5.896 31 6.997v18.506z" fill="#FFD799"/><path d="M16.938 9.688h5.625v.937h-5.625v-.938zm0 2.812H27.25v.938H16.937V12.5zm0 2.813H27.25v.937H16.937v-.938zm0 2.812H27.25v.938H16.937v-.938zm-7.5-3.047c-1.554 0-2.813-1.416-2.813-3.164 0-1.747 1.26-3.164 2.813-3.164 1.553 0 2.812 1.417 2.812 3.164 0 1.748-1.26 3.164-2.813 3.164zm-5.626 3.516c0-.703 1.407-2.813 2.813-2.813 1.406 0 .703.703 2.813.703 2.109 0 1.406-.703 2.812-.703s2.813 2.11 2.813 2.813c0 .703 0 1.406-.704 1.406H4.516c-.704 0-.703-.703-.704-1.406z" fill="#FF9300"/><g transform="translate(4 23)"><rect fill="#297EF1" fill-rule="nonzero" width="28" height="8" rx="1"/><use fill="#000" xlink:href="#a"/><use fill="#FFF" xlink:href="#a"/></g></g></svg>
